!!!OTL: Peter Unverdorben Zu mitterfasten es beschach,
!!!ARE: Europa, Mitteleuropa, Deutschland
!!!YOR: 1, S. 284
!!    1439 Handschrift
!!!SCT: Q0026
!!!YEM: Copyright 1995, estate of Helmut Schaffrath.
**kern
*ICvox
*Ivox
!! Irregular meter.
*MX
*k[b-]
*d:
{4d
4d
4g
=1
2a
4g
4e
2fn
=2
2d}
{4e
4fn
4g
=3
4d
4d
4cn
4cn
4g
=4
4a
4a
4fn}
=5
{4fn
=6
8g
8g
4fn
2e
4fn
=7
4g
2fn
4r}
{4d
4d
4g
=8
4a
4a
4g
4e
2fn
=9
2d
4r}
=10
{4e
4fn
4g
=11
2d
2cn
4fn
=12
4g
4g
4e}
=13
{4d
=14
4d
4g
2a
4fn
=15
4e
4d
4r}
==
!!!AGN: Ballade, Gefangenschaft, Hinrichtung
!! Zwei dreizeilige Strophen bilden diese Melodie. Original in
!!    Mensuralnotation.
!!!ONB: ESAC (Essen Associative Code) Database: BALLADE
!!!AMT: irregular
!!!AIN: vox
!!!EED: Helmut Schaffrath
!!!EEV: 1.0
*-
